storage/app/icons/phosphoricons/thin/mouse-left-click-thin.svg

<svg xmlns="http://www.w3.org/2000/svg" fill="currentColor" viewBox="0 0 256 256"><path d="M144 20h-32a60.07 60.07 0 0 0-60 60v96a60.07 60.07 0 0 0 60 60h32a60.07 60.07 0 0 0 60-60V80a60.07 60.07 0 0 0-60-60m52 60v28h-64V28h12a52.06 52.06 0 0 1 52 52m-72-52v42.34L87.7 34.05A51.6 51.6 0 0 1 112 28ZM80.78 38.44 124 81.66V108h-10.34L64.51 58.85a52.5 52.5 0 0 1 16.27-20.41M60 80a51.6 51.6 0 0 1 1.59-12.75L102.34 108H60Zm84 148h-32a52.06 52.06 0 0 1-52-52v-60h136v60a52.06 52.06 0 0 1-52 52"/></svg>

<svg xmlns="http://www.w3.org/2000/svg" viewBox="0 0 256 256" fill="currentColor"><path d="M144,20H112A60.07,60.07,0,0,0,52,80v96a60.07,60.07,0,0,0,60,60h32a60.07,60.07,0,0,0,60-60V80A60.07,60.07,0,0,0,144,20Zm52,60v28H132V28h12A52.06,52.06,0,0,1,196,80ZM124,28V70.34L87.7,34.05A51.61,51.61,0,0,1,112,28ZM80.78,38.44,124,81.66V108H113.66L64.51,58.85A52.5,52.5,0,0,1,80.78,38.44ZM60,80a51.55,51.55,0,0,1,1.59-12.75L102.34,108H60Zm84,148H112a52.06,52.06,0,0,1-52-52V116H196v60A52.06,52.06,0,0,1,144,228Z"/></svg>
